T: From Night Til Morn
M: 4/4
L: 1/8
K: Gmaj
|: dc | B2 B2 B2 G2 | AGAB G2 AB | cBAG GABc | d3 e/2c/2 B2 dc |
B2 B2 B2 G2 | AGAB G2 AB | cBAG GABG | [1 A4 G2 :| [2 A4 G4 ||
|: GABc d2 d2 | d2 e2 d4 | e2 d2 g2 B2 | d3 e/2c/2 B2 dc |
B2 B2 B2 G2 | AGAB G2 AB |cBAG GABc | d3e/2c/2 B2 dc |
B2 B2 B2 G2 | AGAB G2 AB | cBAG GABG | [1 A4 G4 :| [2 A4 G2 ||
